icons/jest-filled.svg

<svg xmlns="http://www.w3.org/2000/svg" width="256" height="256" fill="none"><rect width="256" height="256" fill="#99424F" rx="60"/><path fill="#fff" d="M213.353 126.495c0-12.045-8.28-22.178-19.397-25.073L218.854 28H95.461l24.957 73.654c-10.771 3.127-18.703 13.086-18.703 24.898 0 8.686 4.342 16.387 10.943 21.135-2.605 3.706-5.616 7.123-9.033 10.365-6.427 6.022-13.549 10.654-21.25 13.723-6.949-4.69-9.96-12.97-7.238-20.382 10.596-3.242 18.297-13.144 18.297-24.783 0-14.302-11.638-25.883-25.883-25.883-14.302 0-25.94 11.639-25.94 25.941 0 7.064 2.895 13.55 7.527 18.182-.405.811-.81 1.621-1.216 2.49-3.88 7.991-8.28 17.024-9.96 27.157-3.358 20.266 2.143 36.537 15.403 45.744 7.47 5.153 15.692 7.759 24.551 7.759 15.229 0 30.689-7.643 45.628-15.055 10.655-5.269 21.656-10.77 32.484-13.434 3.996-.984 8.165-1.563 12.566-2.2 8.917-1.274 18.124-2.606 26.404-7.412 9.67-5.616 16.271-14.997 18.182-25.767 1.447-8.28 0-16.618-3.706-23.914 2.49-3.996 3.879-8.686 3.879-13.723m-11.291 0c0 8.048-6.543 14.591-14.592 14.591s-14.591-6.543-14.591-14.591c0-2.606.694-5.096 1.91-7.238a16.6 16.6 0 0 1 1.622-2.317c.579-.694 1.274-1.331 2.026-1.91l.058-.058c.463-.348.985-.695 1.506-1.043 0 0 .058 0 .058-.058.231-.115.463-.289.694-.405.058 0 .116-.058.174-.058.232-.116.521-.231.811-.347.289-.116.579-.232.81-.348.058 0 .116-.058.174-.058.232-.057.463-.173.695-.231.058 0 .174-.058.232-.058.289-.058.521-.116.81-.174h.058l.869-.173c.058 0 .173 0 .231-.058.232 0 .464-.058.695-.058h.29c.289 0 .579-.058.926-.058h.753c.232 0 .405 0 .637.058h.116c.463.058.926.116 1.389.231 6.601 1.39 11.639 7.296 11.639 14.361m-90.446-86.914h91.083l-20.903 61.667c-.869.174-1.737.464-2.606.753l-22.003-44.875-22.062 44.586c-.868-.29-1.795-.464-2.721-.637zm41.401 81.876c-1.1-5.443-3.879-10.307-7.817-13.897l11.987-24.204 12.101 24.725c-3.59 3.59-6.195 8.165-7.238 13.376zm-29.009-9.149c.289-.058.521-.116.81-.174h.174c.232-.058.463-.058.695-.115h.231c.232 0 .406-.058.637-.058h2.259c.231 0 .405.058.579.058.116 0 .173 0 .289.057.232.058.406.058.637.116.058 0 .116 0 .232.058.289.058.579.116.81.174h.058c.232.058.464.116.695.231.058 0 .116.058.232.058.174.058.405.116.579.232.058 0 .116.058.174.058.231.116.463.174.694.289h.058c.29.116.521.232.753.406h.058c.232.116.463.289.695.405.058 0 .058.058.116.058.231.116.405.289.637.405l.057.058c.695.521 1.332 1.1 1.969 1.679l.058.058c.579.637 1.158 1.332 1.621 2.085a14.55 14.55 0 0 1 2.374 7.991c0 8.048-6.543 14.591-14.591 14.591-8.049 0-14.592-6.543-14.592-14.591-.058-6.775 4.632-12.508 11.002-14.129m-56.978-.405c8.049 0 14.592 6.543 14.592 14.592s-6.543 14.591-14.592 14.591-14.592-6.543-14.592-14.591c0-8.049 6.544-14.592 14.592-14.592m134.685 50.202c-1.274 7.412-5.849 13.897-12.566 17.777-6.311 3.648-14.07 4.806-22.235 5.964-4.458.637-9.148 1.332-13.665 2.432-12.044 2.953-23.625 8.743-34.858 14.302-14.36 7.122-27.91 13.839-40.475 13.839-6.543 0-12.391-1.853-17.95-5.732-12.739-8.802-12.102-25.304-10.596-34.337 1.39-8.454 5.269-16.387 8.975-23.972.231-.464.405-.869.637-1.332a22.5 22.5 0 0 0 3.995 1.042c-2.2 12.276 4.053 24.957 16.213 31.21l2.2 1.158 2.374-.868c10.134-3.59 19.514-9.439 27.794-17.256 4.691-4.4 8.686-9.148 12.044-14.302 1.332.232 2.664.29 3.996.29 12.044 0 22.177-8.281 25.072-19.398h9.728c2.895 11.175 13.028 19.398 25.072 19.398 4.806 0 9.265-1.332 13.087-3.59 1.505 4.342 1.968 8.859 1.158 13.375"/></svg>

<svg width="256" height="256" viewBox="0 0 256 256" fill="none" xmlns="http://www.w3.org/2000/svg">
<rect width="256" height="256" rx="60" fill="#99424F"/>
<path d="M213.353 126.495C213.353 114.45 205.073 104.317 193.956 101.422L218.854 28H95.461L120.418 101.654C109.647 104.781 101.715 114.74 101.715 126.552C101.715 135.238 106.057 142.939 112.658 147.687C110.053 151.393 107.042 154.81 103.625 158.052C97.1981 164.074 90.076 168.706 82.3747 171.775C75.4263 167.085 72.4153 158.805 75.1368 151.393C85.7332 148.151 93.4344 138.249 93.4344 126.61C93.4344 112.308 81.7957 100.727 67.5514 100.727C53.2491 100.727 41.6104 112.366 41.6104 126.668C41.6104 133.732 44.5056 140.218 49.1379 144.85C48.7326 145.661 48.3273 146.471 47.9219 147.34C44.0424 155.331 39.6417 164.364 37.9625 174.497C34.604 194.763 40.1049 211.034 53.3649 220.241C60.8345 225.394 69.0569 228 77.9161 228C93.1449 228 108.605 220.357 123.544 212.945C134.199 207.676 145.2 202.175 156.028 199.511C160.024 198.527 164.193 197.948 168.594 197.311C177.511 196.037 186.718 194.705 194.998 189.899C204.668 184.283 211.269 174.902 213.18 164.132C214.627 155.852 213.18 147.514 209.474 140.218C211.964 136.222 213.353 131.532 213.353 126.495V126.495ZM202.062 126.495C202.062 134.543 195.519 141.086 187.47 141.086C179.422 141.086 172.879 134.543 172.879 126.495C172.879 123.889 173.573 121.399 174.789 119.257C175.253 118.446 175.832 117.635 176.411 116.94C176.99 116.246 177.685 115.609 178.437 115.03L178.495 114.972C178.958 114.624 179.48 114.277 180.001 113.929C180.001 113.929 180.059 113.929 180.059 113.871C180.29 113.756 180.522 113.582 180.753 113.466C180.811 113.466 180.869 113.408 180.927 113.408C181.159 113.292 181.448 113.177 181.738 113.061C182.027 112.945 182.317 112.829 182.548 112.713C182.606 112.713 182.664 112.655 182.722 112.655C182.954 112.598 183.185 112.482 183.417 112.424C183.475 112.424 183.591 112.366 183.649 112.366C183.938 112.308 184.17 112.25 184.459 112.192H184.517L185.386 112.019C185.444 112.019 185.559 112.019 185.617 111.961C185.849 111.961 186.081 111.903 186.312 111.903H186.602C186.891 111.903 187.181 111.845 187.528 111.845H188.281C188.513 111.845 188.686 111.845 188.918 111.903H189.034C189.497 111.961 189.96 112.019 190.423 112.134C197.024 113.524 202.062 119.43 202.062 126.495V126.495ZM111.616 39.5808H202.699L181.796 101.248C180.927 101.422 180.059 101.712 179.19 102.001L157.187 57.1257L135.125 101.712C134.257 101.422 133.33 101.248 132.404 101.075L111.616 39.5808ZM153.017 121.457C151.917 116.014 149.138 111.15 145.2 107.56L157.187 83.3561L169.288 108.081C165.698 111.671 163.093 116.246 162.05 121.457H153.017ZM124.008 112.308C124.297 112.25 124.529 112.192 124.818 112.134H124.992C125.224 112.076 125.455 112.076 125.687 112.019H125.918C126.15 112.019 126.324 111.961 126.555 111.961H128.814C129.045 111.961 129.219 112.019 129.393 112.019C129.509 112.019 129.566 112.019 129.682 112.076C129.914 112.134 130.088 112.134 130.319 112.192C130.377 112.192 130.435 112.192 130.551 112.25C130.84 112.308 131.13 112.366 131.361 112.424H131.419C131.651 112.482 131.883 112.54 132.114 112.655C132.172 112.655 132.23 112.713 132.346 112.713C132.52 112.771 132.751 112.829 132.925 112.945C132.983 112.945 133.041 113.003 133.099 113.003C133.33 113.119 133.562 113.177 133.793 113.292H133.851C134.141 113.408 134.372 113.524 134.604 113.698H134.662C134.894 113.814 135.125 113.987 135.357 114.103C135.415 114.103 135.415 114.161 135.473 114.161C135.704 114.277 135.878 114.45 136.11 114.566L136.167 114.624C136.862 115.145 137.499 115.724 138.136 116.303L138.194 116.361C138.773 116.998 139.352 117.693 139.815 118.446C141.321 120.762 142.189 123.483 142.189 126.437C142.189 134.485 135.646 141.028 127.598 141.028C119.549 141.028 113.006 134.485 113.006 126.437C112.948 119.662 117.638 113.929 124.008 112.308V112.308ZM67.0302 111.903C75.0789 111.903 81.622 118.446 81.622 126.495C81.622 134.543 75.0789 141.086 67.0302 141.086C58.9816 141.086 52.4384 134.543 52.4384 126.495C52.4384 118.446 58.9816 111.903 67.0302 111.903ZM201.715 162.105C200.441 169.517 195.866 176.002 189.149 179.882C182.838 183.53 175.079 184.688 166.914 185.846C162.456 186.483 157.766 187.178 153.249 188.278C141.205 191.231 129.624 197.021 118.391 202.58C104.031 209.702 90.4813 216.419 77.9161 216.419C71.373 216.419 65.5247 214.566 59.9659 210.687C47.2271 201.885 47.864 185.383 49.3695 176.35C50.7592 167.896 54.6388 159.963 58.3446 152.378C58.5763 151.914 58.75 151.509 58.9816 151.046C60.2555 151.509 61.5873 151.856 62.977 152.088C60.7766 164.364 67.0302 177.045 79.19 183.298L81.3904 184.456L83.7644 183.588C93.8976 179.998 103.278 174.149 111.558 166.332C116.249 161.932 120.244 157.184 123.602 152.03C124.934 152.262 126.266 152.32 127.598 152.32C139.642 152.32 149.775 144.039 152.67 132.922H162.398C165.293 144.097 175.426 152.32 187.47 152.32C192.276 152.32 196.735 150.988 200.557 148.73C202.062 153.072 202.525 157.589 201.715 162.105V162.105Z" fill="white"/>
</svg>
